app/images/dist/call-chat.svg

<svg width="48" height="48" viewBox="0 0 48 48" fill="none" xmlns="http://www.w3.org/2000/svg">
<path d="M34 24C39.5228 24 44 19.5228 44 14C44 8.47716 39.5228 4 34 4C28.4772 4 24 8.47716 24 14C24 15.5997 24.3756 17.1116 25.0434 18.4525C25.221 18.8088 25.28 19.2161 25.1772 19.6006L24.5816 21.8266C24.323 22.793 25.207 23.677 26.1734 23.4184L28.3994 22.8228C28.784 22.72 29.1912 22.779 29.5476 22.9566C30.8884 23.6244 32.4004 24 34 24Z" stroke="#DC143C" stroke-width="1.5"/>
<path d="M29.2891 33.0874L30.2001 32.1284L28.0249 30.0624L27.1139 31.0214L29.2891 33.0874ZM33.1975 31.7246L37.0185 33.924L38.5151 31.324L34.6941 29.1246L33.1975 31.7246ZM37.7559 38.4838L34.9147 41.475L37.0899 43.541L39.9311 40.5498L37.7559 38.4838ZM33.2053 42.4334C30.3353 42.7168 22.8467 42.475 14.7184 33.9174L12.5432 35.9834C21.4019 45.31 29.8523 45.779 33.4999 45.419L33.2053 42.4334ZM14.7184 33.9174C6.96613 25.7556 5.66577 18.8712 5.50369 15.8515L2.50801 16.0123C2.70651 19.7108 4.27687 27.2806 12.5432 35.9834L14.7184 33.9174ZM17.4691 20.6432L18.0427 20.0392L15.8675 17.9732L15.2939 18.5772L17.4691 20.6432ZM18.4934 12.5203L15.9714 8.9533L13.5218 10.6852L16.0438 14.2522L18.4934 12.5203ZM7.43539 8.1843L4.29619 11.4893L6.47135 13.5553L9.61055 10.2504L7.43539 8.1843ZM16.3815 19.6102C15.2939 18.5772 15.2925 18.5786 15.2911 18.5801C15.2906 18.5806 15.2892 18.5821 15.2883 18.5831C15.2864 18.5851 15.2844 18.5872 15.2825 18.5893C15.2786 18.5935 15.2745 18.598 15.2703 18.6026C15.2619 18.6118 15.253 18.6218 15.2436 18.6325C15.2249 18.6541 15.2044 18.6787 15.1824 18.7064C15.1384 18.762 15.0887 18.8303 15.0365 18.9118C14.9319 19.0753 14.8184 19.2907 14.7223 19.5607C14.5269 20.1098 14.4204 20.837 14.5535 21.7452C14.8149 23.5294 15.984 25.9288 19.0387 29.1448L21.2139 27.0788C18.3586 24.0726 17.6553 22.2212 17.5218 21.3102C17.4574 20.8708 17.5228 20.6392 17.5487 20.5664C17.5632 20.5256 17.5728 20.5142 17.5634 20.5288C17.5589 20.5358 17.5499 20.549 17.5348 20.5682C17.5272 20.5776 17.5182 20.5888 17.5073 20.6012C17.5018 20.6076 17.4959 20.6142 17.4896 20.6212C17.4864 20.6246 17.4831 20.6282 17.4797 20.6318C17.478 20.6338 17.4762 20.6356 17.4745 20.6374C17.4736 20.6384 17.4722 20.6398 17.4718 20.6404C17.4704 20.6418 17.4691 20.6432 16.3815 19.6102ZM19.0387 29.1448C22.0845 32.3514 24.3847 33.612 26.1397 33.897C27.0403 34.0432 27.7693 33.9264 28.3213 33.7088C28.5911 33.6024 28.8045 33.4774 28.9647 33.3638C29.0447 33.307 29.1113 33.2532 29.1649 33.2062C29.1919 33.1826 29.2155 33.1606 29.2361 33.1406C29.2465 33.1308 29.2561 33.1212 29.2649 33.1124C29.2693 33.108 29.2735 33.1036 29.2775 33.0994C29.2795 33.0974 29.2815 33.0954 29.2835 33.0934C29.2845 33.0924 29.2859 33.0908 29.2863 33.0904C29.2877 33.0888 29.2891 33.0874 28.2015 32.0544C27.1139 31.0214 27.1153 31.02 27.1167 31.0186C27.1171 31.018 27.1185 31.0166 27.1193 31.0156C27.1211 31.0138 27.1229 31.012 27.1247 31.0102C27.1283 31.0066 27.1317 31.003 27.1349 30.9996C27.1417 30.993 27.1481 30.9866 27.1541 30.9808C27.1661 30.9692 27.1771 30.9592 27.1867 30.9508C27.2057 30.934 27.2199 30.9232 27.2291 30.9168C27.2479 30.9034 27.2459 30.908 27.2205 30.918C27.1819 30.9332 27.0001 30.9974 26.6207 30.9358C25.8155 30.805 24.0783 30.0944 21.2139 27.0788L19.0387 29.1448ZM15.9714 8.9533C13.9442 6.08614 9.88775 5.60242 7.43539 8.1843L9.61055 10.2504C10.6562 9.14946 12.4971 9.23594 13.5218 10.6852L15.9714 8.9533ZM5.50369 15.8515C5.46083 15.0529 5.80857 14.2531 6.47135 13.5553L4.29619 11.4893C3.22449 12.6176 2.40993 14.185 2.50801 16.0123L5.50369 15.8515ZM34.9147 41.475C34.3567 42.0626 33.7729 42.3774 33.2053 42.4334L33.4999 45.419C34.9941 45.2714 36.2033 44.4746 37.0899 43.541L34.9147 41.475ZM18.0427 20.0392C19.9778 18.0019 20.1149 14.8136 18.4934 12.5203L16.0438 14.2522C16.888 15.4463 16.7586 17.0351 15.8675 17.9732L18.0427 20.0392ZM37.0185 33.924C38.6601 34.869 38.9815 37.1936 37.7559 38.4838L39.9311 40.5498C42.5409 37.802 41.7809 33.2038 38.5151 31.324L37.0185 33.924ZM30.2001 32.1284C30.9709 31.3168 32.1721 31.1344 33.1975 31.7246L34.6941 29.1246C32.4971 27.86 29.7723 28.2226 28.0249 30.0624L30.2001 32.1284Z" fill="#DC143C"/>
</svg>

<svg width="48" height="48" fill="none" xmlns="http://www.w3.org/2000/svg"><path d="M34 24c5.523 0 10-4.477 10-10S39.523 4 34 4 24 8.477 24 14c0 1.6.376 3.112 1.043 4.453.178.356.237.763.134 1.148l-.595 2.226a1.3 1.3 0 0 0 1.591 1.591l2.226-.595a1.634 1.634 0 0 1 1.149.134A9.96 9.96 0 0 0 34 24Z" stroke="#DC143C" stroke-width="1.5"/><path d="m29.29 33.087.91-.959-2.175-2.066-.911.96 2.175 2.065Zm3.907-1.362 3.822 2.199 1.496-2.6-3.82-2.2-1.498 2.6Zm4.559 6.759-2.841 2.991 2.175 2.066 2.841-2.991-2.175-2.066Zm-4.55 3.95c-2.87.283-10.36.041-18.488-8.517l-2.175 2.066c8.859 9.327 17.31 9.796 20.957 9.436l-.295-2.986Zm-18.488-8.517c-7.752-8.161-9.052-15.046-9.214-18.066l-2.996.161c.199 3.699 1.769 11.269 10.035 19.971l2.175-2.066Zm2.751-13.274.574-.604-2.175-2.066-.574.604 2.175 2.066Zm1.024-8.123-2.522-3.567-2.45 1.732 2.523 3.567 2.45-1.732ZM7.435 8.184 4.296 11.49l2.175 2.066 3.14-3.305-2.176-2.066Zm8.947 11.426a76.446 76.446 0 0 0-1.09-1.03l-.004.003-.005.006-.013.014a2.113 2.113 0 0 0-.233.309 3.186 3.186 0 0 0-.315.649c-.195.549-.302 1.276-.168 2.184.26 1.784 1.43 4.184 4.485 7.4l2.175-2.066c-2.855-3.006-3.559-4.858-3.692-5.769-.065-.44 0-.67.027-.744.014-.04.024-.052.014-.037a.526.526 0 0 1-.028.04l-.028.032a1.18 1.18 0 0 1-.017.02l-.01.01-.006.006-.002.003c-.002.002-.003.003-1.09-1.03Zm2.657 9.535c3.045 3.206 5.346 4.467 7.1 4.752.901.146 1.63.03 2.182-.188.27-.107.483-.232.644-.345a2.494 2.494 0 0 0 .271-.223l.029-.029a.738.738 0 0 0 .018-.019c.002 0 .003-.002.003-.003.002-.001.003-.003-1.085-1.036-1.087-1.033-1.086-1.034-1.084-1.035l.002-.003.006-.006a.482.482 0 0 0 .01-.01l.02-.02a.893.893 0 0 1 .074-.063c.019-.014.017-.009-.008.001-.04.015-.22.08-.6.018-.805-.131-2.543-.842-5.407-3.857l-2.175 2.066ZM15.97 8.953c-2.027-2.867-6.083-3.35-8.536-.769L9.61 10.25c1.045-1.1 2.886-1.014 3.91.435l2.45-1.732ZM5.504 15.852c-.043-.8.305-1.599.967-2.297L4.296 11.49c-1.072 1.129-1.886 2.696-1.788 4.523l2.996-.16Zm29.41 25.623c-.557.588-1.141.902-1.709.958l.295 2.986c1.494-.148 2.703-.944 3.59-1.878l-2.175-2.066Zm-16.87-21.436c1.935-2.037 2.072-5.225.45-7.519l-2.45 1.732c.845 1.194.716 2.783-.175 3.721l2.175 2.066ZM37.02 33.924c1.641.945 1.962 3.27.737 4.56l2.175 2.066c2.61-2.748 1.85-7.346-1.416-9.226l-1.496 2.6Zm-6.82-1.796c.77-.811 1.972-.994 2.997-.403l1.497-2.6c-2.197-1.265-4.922-.902-6.67.937l2.176 2.066Z" fill="#DC143C"/></svg>
